packages/kaspersky-hexa-ui-icons/src/iconsSVGs/32/ShieldCracked.svg

<svg xmlns="http://www.w3.org/2000/svg" width="32" height="32" fill="none" viewBox="0 0 32 32"><path fill="#000" fill-rule="evenodd" d="M16.9351 2.24a2 2 0 0 0-1.8702 0L5.5324 7.2819A1 1 0 0 0 5 8.1659v5.8897c0 1.9452.1116 4.0283.8045 6.0066 1.453 4.1481 3.9168 6.6288 6.0368 8.0685 1.0559.7171 2.0229 1.174 2.7329 1.4533.3553.1398.6474.2356.8557.2975.1042.031.1875.0536.2475.069q.045.0115.0721.0179l.0223.0052.0077.0017.0029.0007.0012.0003c.0005.0001.0009.0002.1254-.5638l-.1243.564a1 1 0 0 0 .4589-.0067l-.1644-.6546c.1645.6546.165.6545.1654.6544l.0012-.0003.0028-.0007.0074-.0019.0217-.0058.0419-.0115.0287-.0081a7 7 0 0 0 .2432-.0747c.205-.0667.4929-.1688.8434-.3152.7004-.2926 1.6555-.7639 2.7001-1.4866 2.0952-1.4493 4.546-3.9076 6.0129-7.9295.7367-2.0196.8521-4.1586.8521-6.1491V8.1659a1 1 0 0 0-.5325-.884zm-.21 25.4402c.5888-.2501 1.3915-.651 2.2721-1.2602 1.817-1.2569 3.9705-3.4023 5.2718-6.9701.6111-1.6752.731-3.5213.731-5.4637v-5.218l-7.3484-3.8867L14.8185 15H18.5a1 1 0 0 1 .9724 1.2333zm-.9372-23.56L7 8.7681v5.2874c0 1.8958.1153 3.6987.692 5.3455 1.291 3.6856 3.453 5.8391 5.2729 7.0751a12.4 12.4 0 0 0 1.7536.995L17.2316 17H13.5a1.0003 1.0003 0 0 1-.963-1.2697z"/></svg>

<svg width="32" height="32" viewBox="0 0 32 32" fill="none" xmlns="http://www.w3.org/2000/svg">
<path fill-rule="evenodd" clip-rule="evenodd" d="M16.9351 2.24C16.3501 1.93058 15.6499 1.93058 15.0649 2.24L5.53245 7.28189C5.2049 7.45514 5 7.79531 5 8.16586V14.0556C5 16.0008 5.11158 18.0839 5.80452 20.0622C7.25742 24.2103 9.72131 26.691 11.8413 28.1307C12.8972 28.8478 13.8642 29.3047 14.5742 29.584C14.9295 29.7238 15.2216 29.8196 15.4299 29.8815C15.5341 29.9125 15.6174 29.9351 15.6774 29.9505C15.7074 29.9582 15.7315 29.9641 15.7495 29.9684L15.7718 29.9736L15.7795 29.9753L15.7824 29.976L15.7836 29.9763C15.7841 29.9764 15.7845 29.9765 15.909 29.4125C15.909 29.4125 15.909 29.4125 15.909 29.4125L15.7847 29.9765C15.9361 30.0099 16.0932 30.0076 16.2436 29.9698L16.0792 29.3152C16.0792 29.3152 16.0792 29.3152 16.0792 29.3152C16.2437 29.9698 16.2442 29.9697 16.2446 29.9696L16.2458 29.9693L16.2486 29.9686L16.256 29.9667L16.2777 29.9609C16.2891 29.9579 16.3031 29.954 16.3196 29.9494C16.3285 29.9469 16.338 29.9442 16.3483 29.9413C16.4071 29.9245 16.489 29.8999 16.5915 29.8666C16.7965 29.7999 17.0844 29.6978 17.4349 29.5514C18.1353 29.2588 19.0904 28.7875 20.135 28.0648C22.2302 26.6155 24.681 24.1572 26.1479 20.1353C26.8846 18.1157 27 15.9767 27 13.9862V8.16586C27 7.79531 26.7951 7.45514 26.4675 7.28189L16.9351 2.24ZM16.7251 27.6802C17.3139 27.4301 18.1166 27.0292 18.9972 26.42C20.8142 25.1631 22.9677 23.0177 24.269 19.4499C24.8801 17.7747 25 15.9286 25 13.9862V8.7682L17.6516 4.88151L14.8185 15H18.5C18.8063 15 19.0957 15.1403 19.2853 15.3808C19.4749 15.6214 19.5439 15.9355 19.4724 16.2333L16.7251 27.6802ZM15.7879 4.12012L7 8.7682V14.0556C7 15.9514 7.11527 17.7543 7.69209 19.4011C8.98302 23.0867 11.145 25.2402 12.9649 26.4762C13.6081 26.913 14.2104 27.2363 14.7185 27.4712L17.2316 17H13.5C13.1871 17 12.8923 16.8535 12.7032 16.6043C12.5142 16.355 12.4527 16.0316 12.537 15.7303L15.7879 4.12012Z" fill="black"/>
</svg>
